svg/arrow/fullscreen_2_fill.svg

<?xml version="1.0" encoding="UTF-8"?>
<svg width="24px" height="24px" viewBox="0 0 24 24" version="1.1" xmlns="http://www.w3.org/2000/svg" xmlns:xlink="http://www.w3.org/1999/xlink">
    <title>fullscreen_2_fill</title>
    <g id="页面-1" stroke="none" stroke-width="1" fill="none" fill-rule="evenodd">
        <g id="Arrow" transform="translate(-624.000000, -50.000000)" fill-rule="nonzero">
            <g id="fullscreen_2_fill" transform="translate(624.000000, 50.000000)">
                 <path d="M24,0 L24,24 L0,24 L0,0 L24,0 Z M12.5934901,23.257841 L12.5819402,23.2595131 L12.5108777,23.2950439 L12.4918791,23.2987469 L12.4918791,23.2987469 L12.4767152,23.2950439 L12.4056548,23.2595131 C12.3958229,23.2563662 12.3870493,23.2590235 12.3821421,23.2649074 L12.3780323,23.275831 L12.360941,23.7031097 L12.3658947,23.7234994 L12.3769048,23.7357139 L12.4804777,23.8096931 L12.4953491,23.8136134 L12.4953491,23.8136134 L12.5071152,23.8096931 L12.6106902,23.7357139 L12.6232938,23.7196733 L12.6232938,23.7196733 L12.6266527,23.7031097 L12.609561,23.275831 C12.6075724,23.2657013 12.6010112,23.2592993 12.5934901,23.257841 L12.5934901,23.257841 Z M12.8583906,23.1452862 L12.8445485,23.1473072 L12.6598443,23.2396597 L12.6498822,23.2499052 L12.6498822,23.2499052 L12.6471943,23.2611114 L12.6650943,23.6906389 L12.6699349,23.7034178 L12.6699349,23.7034178 L12.678386,23.7104931 L12.8793402,23.8032389 C12.8914285,23.8068999 12.9022333,23.8029875 12.9078286,23.7952264 L12.9118235,23.7811639 L12.8776777,23.1665331 C12.8752882,23.1545897 12.8674102,23.1470016 12.8583906,23.1452862 L12.8583906,23.1452862 Z M12.1430473,23.1473072 C12.1332178,23.1423925 12.1221763,23.1452606 12.1156365,23.1525954 L12.1099173,23.1665331 L12.0757714,23.7811639 C12.0751323,23.7926639 12.0828099,23.8018602 12.0926481,23.8045676 L12.108256,23.8032389 L12.3092106,23.7104931 L12.3186497,23.7024347 L12.3186497,23.7024347 L12.3225043,23.6906389 L12.340401,23.2611114 L12.337245,23.2485176 L12.337245,23.2485176 L12.3277531,23.2396597 L12.1430473,23.1473072 Z" id="MingCute" fill-rule="nonzero"></path>
                <path d="M8.93934,12.939275 C9.5251,12.353575 10.4749,12.353575 11.0607,12.939275 C11.6097937,13.4884625 11.6441121,14.3575719 11.1636551,14.9467496 L11.0607,15.060675 L7.12132,18.999975 L8.5,18.999975 C9.32843,18.999975 10,19.671575 10,20.499975 C10,21.2796456 9.40511446,21.9204207 8.64446046,21.9931082 L8.5,21.999975 L3.5,21.999975 C2.72030118,21.999975 2.079551,21.4050629 2.00686655,20.6444308 L2,20.499975 L2,15.499975 C2,14.671575 2.67157,13.999975 3.5,13.999975 C4.27969882,13.999975 4.920449,14.5948871 4.99313345,15.3555192 L5,15.499975 L5,16.878675 L8.93934,12.939275 Z M20.499975,2 C21.2796456,2 21.9204207,2.59488554 21.9931082,3.35553954 L21.999975,3.5 L21.999975,8.5 C21.999975,9.32843 21.328375,10 20.499975,10 C19.7203044,10 19.0795293,9.40511446 19.0068418,8.64446046 L18.999975,8.5 L18.999975,7.12132 L15.060675,11.0607 C14.474875,11.6464 13.525075,11.6464 12.939275,11.0607 C12.3901812,10.5115125 12.3558629,9.64240312 12.8363199,9.05325835 L12.939275,8.93934 L16.878675,5 L15.499975,5 C14.671575,5 13.999975,4.32843 13.999975,3.5 C13.999975,2.72030118 14.5948871,2.079551 15.3555192,2.00686655 L15.499975,2 L20.499975,2 Z" id="形状" fill="#09244B"></path>
            </g>
        </g>
    </g>
</svg>

<svg xmlns="http://www.w3.org/2000/svg" width="24" height="24"><g fill="none" fill-rule="nonzero"><path d="M24 0v24H0V0h24ZM12.593 23.258l-.011.002-.071.035-.02.004-.014-.004-.071-.035c-.01-.004-.019-.001-.024.005l-.004.01-.017.428.005.02.01.013.104.074.015.004.012-.004.104-.074.012-.016.004-.017-.017-.427c-.002-.01-.009-.017-.017-.018Zm.265-.113-.013.002-.185.093-.01.01-.003.011.018.43.005.012.008.007.201.093c.012.004.023 0 .029-.008l.004-.014-.034-.614c-.003-.012-.01-.02-.02-.022Zm-.715.002a.023.023 0 0 0-.027.006l-.006.014-.034.614c0 .012.007.02.017.024l.015-.002.201-.093.01-.008.004-.011.017-.43-.003-.012-.01-.01-.184-.092Z"/><path fill="#09244B" d="M8.94 12.94a1.5 1.5 0 0 1 2.224 2.007l-.103.114L7.12 19H8.5a1.5 1.5 0 0 1 .144 2.993L8.5 22h-5a1.5 1.5 0 0 1-1.493-1.356L2 20.5v-5a1.5 1.5 0 0 1 2.993-.144L5 15.5v1.379l3.94-3.94ZM20.5 2a1.5 1.5 0 0 1 1.493 1.356L22 3.5v5a1.5 1.5 0 0 1-2.993.144L19 8.5V7.121l-3.94 3.94a1.5 1.5 0 0 1-2.224-2.008l.103-.114L16.88 5H15.5a1.5 1.5 0 0 1-.144-2.993L15.5 2h5Z"/></g></svg>
